X: 33434
T: Raasay's Farewell To Farquhar & Archie
R: reel
M: 4/4
K: Dmajor
|:dB||AddA defd|egfd B2- Bd|cddc dgfg|ggfa agec|
dddA defd|egfd Bgfa|a2 ga gecd|effe d2:|
|:cA|BdcA G2- G A|c2- cA de f2|fgfa agec|dddf fdcA|
BdcA G2- GA|c2- cAdg fa|a2 ga gecd|effe d2:|

